X:15053
T:Scottiche d'Alsace
R:scottiche
C:trad.
A:Alsace
O:France
Z:S. Piron
M:2/4
L:1/8
Q:1/4=90
K:G
D|:G/2F/2G/2A/2 B/2A/2B/2c/2|ed d>B|1dc c>A|ed dD:|2dc cB/2A/2|GBG2|
|:gd d/2c/2B|gd d/2c/2B|1AA/2B/2 c/2B/2c/2d/2|edd2:|2F/2G/2A/2B/2 cB/2A/2|GB GG|
|:e/2d/2c/2B/2 d/2c/2B/2A/2|G2 EG/2G/2|1=F2DA/2A/2|G2EG:|2A/2A/2G/2A/2 B/2B/2A/2B/2|cc cG/2c/2|
|:BB B=F/2A/2|GG GG/2G/2|1A/2A/2G/2A/2 B/2B/2A/2B/2|c/2c/2B/2A/2 GG/2c/2:|2A/2A/2G/2A/2 B/2B/2A/2B/2|ce c D||
